lib/brands/logos/invision.svg

<svg xmlns="http://www.w3.org/2000/svg" fill="none" aria-hidden="true" viewBox="0 0 184 74"><g id="Invision"><g id="Group"><path id="Vector" fill="#FF0066" d="M64.2583 6.9697V28.5677H67.3501L73.0977 44.5424L78.8922 28.5677H85.5446L76.0395 52.2824H70.0669L64.2583 37.7892V66.6303H4.6001V6.9697H64.2583ZM107.637 28.0239C114.742 28.0239 117.187 32.5502 117.367 36.0358H111.167C111.031 34.5427 109.899 33.1831 107.593 33.1831C105.506 33.1831 104.334 34.1794 104.334 35.492C104.334 39.4745 117.459 35.492 117.459 45.2221C117.459 49.4766 113.837 52.8239 107.412 52.8239C99.9886 52.8239 97.4547 49.0242 97.1382 44.5869H103.655C103.746 46.1715 104.923 47.6646 107.593 47.6646C110.035 47.6646 111.303 46.8044 111.303 45.494C111.303 41.5115 98.1345 45.2667 98.1345 35.853C98.1345 31.554 101.801 28.0239 107.637 28.0239ZM142.395 28.0239C149.999 28.0239 154.842 33.6801 154.842 40.4239C154.842 47.1677 149.996 52.8239 142.395 52.8239C134.793 52.8239 129.95 47.1654 129.95 40.4239C129.95 33.6824 134.793 28.0239 142.395 28.0239ZM170.666 28.0239C176.369 28.0239 179.4 31.8259 179.4 37.4821V52.2847H172.975V38.2088C172.975 35.4498 171.798 33.5488 168.946 33.5488C165.823 33.5488 164.105 35.5366 164.105 38.7057V52.2824H157.678V28.5677H163.606V31.4649C164.694 29.4303 167.136 28.0239 170.666 28.0239ZM94.0113 28.5677V52.2824H87.5839V28.5677H94.0113ZM127.135 28.5677V52.2824H120.708V28.5677H127.135ZM142.395 33.6824C138.998 33.6824 136.378 36.1694 136.378 40.4239C136.378 44.6783 139.003 47.1677 142.395 47.1677C145.796 47.1677 148.414 44.676 148.414 40.4239C148.414 36.1718 145.791 33.6824 142.395 33.6824Z"/><g id="Union"><path fill="white" d="M28.8752 22.2979C28.8898 24.1846 27.376 25.728 25.4894 25.7499C24.5749 25.7574 23.6951 25.4001 23.0447 24.7572C22.3943 24.1143 22.0269 23.2387 22.0239 22.3242C22.024 20.4374 23.5497 18.906 25.4364 18.8987C27.3232 18.8915 28.8606 20.4113 28.8752 22.2979Z"/><path fill="white" d="M17.9678 46.6791C17.9751 45.8112 18.078 44.9468 18.2748 44.1016L20.8851 33.4519H16.8455L18.0733 28.9226H27.7904L23.9546 44.1391C23.7394 44.9024 23.619 45.6894 23.5961 46.4822C23.5961 47.4546 24.0741 47.7405 24.8239 47.9092C25.2691 48.01 28.9151 47.9397 30.8927 43.5416L33.414 33.4542H29.3205L30.5483 28.9249H39.3047L38.1776 34.0658C39.7054 31.2025 42.7819 28.4797 45.7976 28.4797C49.0218 28.4797 51.6813 30.776 51.6813 35.1741C51.6761 36.4385 51.4859 37.6952 51.1166 38.9044L49.4764 44.7834C49.3288 45.3002 49.2431 45.8327 49.2209 46.3698C49.2209 47.3914 49.638 47.9022 50.3925 47.9022C51.147 47.9022 52.1312 47.3398 53.2559 44.2211L55.5053 45.0904C54.1767 49.7439 51.7727 51.6864 48.7547 51.6864C45.2259 51.6864 43.5388 49.5916 43.5388 46.7259C43.5359 45.8611 43.6566 45.0002 43.8973 44.1695L45.5844 38.1171C45.7624 37.5197 45.8485 36.8987 45.8398 36.2754C45.8398 34.3282 44.6635 33.1567 42.7726 33.1567C40.3685 33.1567 38.7822 34.8906 37.9691 38.2249L34.6887 51.3466H28.962L29.9883 47.2203C28.3059 49.9876 25.9674 51.7005 23.083 51.7005C19.608 51.7005 17.9678 49.6971 17.9678 46.6791Z"/></g></g></g></svg>

<svg xmlns="http://www.w3.org/2000/svg" fill="none" aria-hidden="true" viewBox="0 0 184 74"><path fill="#F06" d="M64.258 6.97v21.598h3.092l5.748 15.974 5.794-15.974h6.653l-9.506 23.714h-5.972L64.258 37.79v28.84H4.6V6.97h59.658Zm43.379 21.054c7.105 0 9.55 4.526 9.73 8.012h-6.2c-.136-1.493-1.268-2.853-3.574-2.853-2.087 0-3.259.996-3.259 2.309 0 3.983 13.125 0 13.125 9.73 0 4.255-3.622 7.602-10.047 7.602-7.424 0-9.957-3.8-10.274-8.237h6.517c.091 1.584 1.268 3.078 3.938 3.078 2.442 0 3.71-.86 3.71-2.17 0-3.983-13.169-.228-13.169-9.642 0-4.299 3.666-7.83 9.503-7.83Zm34.758 0c7.604 0 12.446 5.656 12.446 12.4 0 6.744-4.845 12.4-12.446 12.4-7.602 0-12.445-5.659-12.445-12.4 0-6.742 4.843-12.4 12.445-12.4Zm28.271 0c5.703 0 8.734 3.802 8.734 9.458v14.803h-6.425V38.209c0-2.76-1.177-4.66-4.029-4.66-3.123 0-4.841 1.988-4.841 5.157v13.576h-6.427V28.568h5.928v2.897c1.087-2.035 3.53-3.441 7.06-3.441Zm-76.655.544v23.714h-6.427V28.568h6.427Zm33.124 0v23.714h-6.427V28.568h6.427Zm15.26 5.114c-3.397 0-6.018 2.487-6.018 6.742 0 4.254 2.626 6.744 6.018 6.744 3.401 0 6.019-2.492 6.019-6.744s-2.623-6.742-6.019-6.742Z"/><path fill="#fff" d="M28.875 22.298a3.426 3.426 0 0 1-3.386 3.452 3.437 3.437 0 0 1-3.465-3.426 3.426 3.426 0 0 1 6.851-.026ZM17.968 46.68c.007-.869.11-1.733.307-2.578l2.61-10.65h-4.04l1.228-4.53h9.717L23.955 44.14a9.665 9.665 0 0 0-.359 2.343c0 .973.478 1.259 1.228 1.427.445.101 4.091.03 6.069-4.367l2.52-10.088H29.32l1.228-4.53h8.757l-1.127 5.142c1.527-2.864 4.604-5.586 7.62-5.586 3.224 0 5.883 2.296 5.883 6.694a12.954 12.954 0 0 1-.564 3.73l-1.64 5.88a6.799 6.799 0 0 0-.256 1.586c0 1.021.417 1.532 1.171 1.532.755 0 1.74-.562 2.864-3.68l2.25.868c-1.33 4.654-3.733 6.596-6.751 6.596-3.53 0-5.216-2.094-5.216-4.96a9.076 9.076 0 0 1 .358-2.556l1.687-6.053a6.15 6.15 0 0 0 .256-1.841c0-1.948-1.177-3.12-3.068-3.12-2.404 0-3.99 1.735-4.803 5.069l-3.28 13.122h-5.727l1.026-4.127c-1.682 2.768-4.02 4.48-6.905 4.48-3.475 0-5.115-2.003-5.115-5.02Z"/></svg>
